static/images/mobile/copyright/wikipedia-wordmark-ar.svg

<?xml version="1.0" encoding="UTF-8"?>
<svg xmlns="http://www.w3.org/2000/svg" width="106" height="30" viewBox="0 0 106 30">
	<title>
		ar-wordmark
	</title>
	<g id="Page-1" fill="none" fill-rule="evenodd" stroke="none" stroke-width="1">
		<path id="ar-wordmark" fill="#000" fill-rule="nonzero" d="M89.0724509,26.408414 L91.6275754,28.0281294 L89.9742599,29.9999603 L87.4191366,28.4506659 L89.0724509,26.408414 Z M84.5258352,26.408414 L87.0809586,28.0281294 L85.4276432,29.9999603 L82.8725198,28.4506659 L84.5258352,26.408414 Z M62.7695944,26.4084537 L65.3247177,28.028169 L63.6714023,30 L61.116279,28.4507057 L62.7695944,26.4084537 Z M58.2229776,26.4084537 L60.778101,28.028169 L59.1247867,30 L56.5696633,28.4507057 L58.2229776,26.4084537 Z M40.074099,26.4084537 L42.6292223,28.028169 L40.975908,30 L38.4207846,28.4507057 L40.074099,26.4084537 Z M35.5274832,26.4084537 L38.0826066,28.028169 L36.4292913,30 L33.8741679,28.4507057 L35.5274832,26.4084537 Z M13.9216647,26.408414 L16.4767882,28.0281294 L14.8234727,29.9999603 L12.2683494,28.4506659 L13.9216647,26.408414 Z M9.37504905,26.408414 L11.9301714,28.0281294 L10.2768571,29.9999603 L7.72173367,28.4506659 L9.37504905,26.408414 Z M100.758363,11.1090375 C101.259171,11.1090375 101.634928,11.1678226 101.885433,11.2851548 C102.524206,11.5903393 103.100365,12.0656893 103.613897,12.7112145 C104.177523,13.38024 104.691044,14.242911 105.154494,15.2992376 C105.455081,15.9330475 105.705585,16.7781208 105.905998,17.8344473 L105.943578,18.1161318 L106,19.278105 L105.906103,20.6513416 L105.849787,21.1619071 C105.699467,22.0774013 105.386335,23.045709 104.910394,24.06683 C104.50958,24.9823244 103.870806,25.9271617 102.994051,26.901332 C102.543145,27.4647108 101.898104,27.9870116 101.058929,28.4682341 L100.457724,28.7675263 C99.9567043,28.9553192 99.3492434,29.0492206 98.6353202,29.0492206 C98.046628,29.0492206 97.3139149,28.9377115 96.4371594,28.7147129 C95.9737303,28.6325765 95.0656617,28.3273918 93.7129434,27.7992186 C93.6502749,27.7757085 93.5876911,27.7522976 93.525065,27.7287876 L93.9384017,26.830901 L97.5080601,26.8132436 L97.6583587,26.8132436 C97.7961341,26.8132436 98.0779412,26.7486653 98.503801,26.619588 C99.2052011,26.3848444 99.9629711,25.9623078 100.777111,25.3519783 C101.102754,25.1054994 101.6476,24.577336 102.411636,23.7674784 C103.075456,22.9810911 103.588989,22.2710074 103.952223,21.6371975 C104.165147,21.1677201 104.27161,20.809742 104.27162,20.5632531 C104.27161,20.3285194 104.208951,20.0820405 104.083742,19.8238166 C103.482526,20.1994124 102.543145,20.3813328 101.265586,20.3695975 C100.789624,20.3695975 100.395087,20.3460875 100.081967,20.2991666 C99.4306595,20.263951 98.8169211,20.0057469 98.2407733,19.5245243 C98.1280442,19.4423879 98.0278487,19.3484765 97.9401763,19.2428299 C97.6019888,18.8555188 97.3640179,18.2745322 97.2262425,17.4998801 C97.1886626,17.312097 97.1699256,17.1477745 97.1699256,17.0069224 L97.1323456,16.2850935 C97.1574342,15.5691373 97.2450643,14.9353373 97.3953733,14.3836838 C97.5080919,13.8437952 97.8400126,13.2510734 98.3911142,12.6055184 C98.5163665,12.4529509 98.6416188,12.3238439 98.766871,12.2181973 C99.0173651,11.9365228 99.393122,11.6548284 99.8941311,11.3731241 C100.232308,11.1970862 100.520382,11.1090375 100.758363,11.1090375 Z M49.4867216,24.3486038 L52.5491124,26.373248 L50.576407,28.7500078 L47.4952293,26.8838037 L49.4867216,24.3486038 Z M89.2414875,9.71829238 C89.5671329,10.1056333 89.9240935,10.6455418 90.312384,11.3380177 C90.6505503,11.9600923 90.9198449,12.640843 91.120257,13.3802598 C91.3832741,14.3309795 91.5272846,15.2699443 91.5523731,16.1971638 C91.5647587,16.3967019 91.5711102,16.5786223 91.5711102,16.742935 C91.5711102,17.1537463 91.5335409,17.5175871 91.458381,17.8344871 C91.3331182,18.3743955 91.0888804,18.826275 90.7256572,19.1901158 C90.3248541,19.5774469 89.8551581,19.8943468 89.3165849,20.1408157 C88.7905242,20.3755693 88.1266934,20.4929313 87.3250926,20.4929313 L87.3250926,20.4929313 L82.5907054,20.4929313 L82.5907054,17.3943426 L87.3815609,17.3943426 C88.7092171,17.3943526 89.4795102,17.2006871 89.6924423,16.8133561 L89.6924423,16.8133561 L89.7300222,16.6020927 L89.6735994,16.109135 C89.598446,15.8391956 89.3166315,15.2171309 88.8281581,14.2429408 C88.3146227,13.2100944 88.0328061,12.6701463 87.9827136,12.6232253 L87.9827136,12.6232253 L89.2414875,9.71829238 Z M80.8433417,0.897886572 L80.8433417,3.36267519 L70.1907331,7.78167701 L70.6416371,8.15140026 L74.7749245,11.2851944 C75.7769259,12.036386 76.7100459,12.8462437 77.5742877,13.7147675 C77.9124551,14.0551577 78.6764866,14.9295739 79.8663834,16.3380061 L79.8663834,16.3380061 L80.1481979,16.654906 C80.5865639,17.1478738 80.9811055,17.3943526 81.3318215,17.3943426 L81.3318215,17.3943426 L82.5718074,17.3943426 L82.5718074,20.4929412 L22.6391499,20.4929412 C22.1256165,20.4929412 21.6559247,20.322746 21.2300744,19.9823658 C20.9795697,19.7945827 20.7603804,19.4952906 20.5725062,19.0844792 C20.4096771,18.7323736 20.2969543,18.3391899 20.2343282,17.9049081 L20.2343282,17.9049081 L20.2155382,17.605606 L20.2531181,16.6901216 C20.2781665,16.4788582 20.365842,16.2617224 20.5161448,16.0387139 C20.5912941,15.9448223 20.7415947,15.7805098 20.9670498,15.5457562 C20.9670392,15.9330872 20.9795624,16.1736439 21.0046191,16.267585 C21.0547169,16.5610245 21.1173473,16.7488274 21.1924965,16.8309638 C21.2926941,16.9483456 21.4304706,17.0657174 21.6058249,17.1830793 C21.8187485,17.3239117 22.1757132,17.3943526 22.6767224,17.3943426 L22.6767224,17.3943426 L28.6136258,17.3943426 C29.3275458,17.3943526 29.8097629,17.2887159 30.0602759,17.0774427 L30.0602759,17.0774427 L30.2293655,16.8133561 L30.2857247,16.4964561 C30.2857132,16.3438886 30.1855124,16.0035083 29.9851224,15.475335 C29.5717825,14.6654873 29.0707786,13.8380218 28.4821088,12.9929387 C27.3548392,11.5610361 26.1962683,10.4577488 25.0063895,9.68308678 C25.4698124,8.3920264 25.8518277,7.37090536 26.1524374,6.61971373 C26.4530323,6.91315323 26.7598972,7.22419057 27.0730332,7.55280591 C28.5259365,9.13732562 29.6907711,10.7453059 30.5675403,12.3767465 C30.7929795,12.799293 31.0184316,13.2922507 31.2438963,13.8556197 L31.2438963,13.8556197 L32.0893418,16.1619484 C32.1143743,16.2793302 32.1519542,16.4025745 32.2020678,16.5316717 C32.4024556,17.1067956 32.5590189,17.3943526 32.6717586,17.3943426 L32.6717586,17.3943426 L40.750457,17.3943426 L40.750457,16.8837772 C40.6878203,16.2499871 40.5625744,15.7218239 40.3747045,15.2992773 L39.0407792,12.6760388 C39.1159284,12.4060994 39.5104658,11.4495269 40.2244028,9.80632125 C40.2369259,9.77110574 40.2494489,9.74174293 40.2619827,9.71833205 C40.7128793,10.2113096 41.2326709,11.1444018 41.8213589,12.5176284 L42.140749,13.3802995 C42.3035675,13.9084826 42.4789185,14.5892333 42.6668044,15.4225515 L42.929831,16.7605824 C42.9423435,16.8310135 42.9611334,16.8838268 42.9861902,16.9190324 C43.111432,17.2359422 43.4182969,17.3943923 43.9067861,17.3943824 L52.0982095,17.3943426 L52.0982095,16.8837772 C52.0355728,16.2499871 51.9103258,15.7218239 51.7224558,15.2992773 L50.3885317,12.6760388 C50.4636809,12.4060994 50.8582172,11.4495269 51.5721541,9.80632125 C51.5846773,9.77110574 51.5972004,9.74174293 51.609734,9.71833205 C52.0606306,10.2113096 52.5804224,11.1444018 53.1691102,12.5176284 L53.4885015,13.3802995 C53.6513188,13.9084826 53.82667,14.5892333 54.0145557,15.4225515 L54.2775835,16.7605824 C54.290096,16.8310135 54.3088859,16.8838268 54.3339427,16.9190324 C54.4591844,17.2359422 54.7660494,17.3943923 55.2545386,17.3943824 L63.4459609,17.3943426 L63.4459609,16.8837772 C63.3833243,16.2499871 63.2580772,15.7218239 63.0702072,15.2992773 L61.7362831,12.6760388 C61.8114323,12.4060994 62.2059686,11.4495269 62.9199066,9.80632125 C62.9324297,9.77110574 62.9449528,9.74174293 62.9574759,9.71833205 C63.4083736,10.2113096 63.9281653,11.1444018 64.5168532,12.5176284 L64.8362433,13.3802995 C64.9990607,13.9084826 65.1744118,14.5892333 65.3622976,15.4225515 L65.6253254,16.7605824 C65.6378378,16.8310135 65.6566278,16.8838268 65.6816846,16.9190324 C65.8069263,17.2359422 66.1137913,17.3943923 66.6022805,17.3943824 L75.5264382,17.3943526 C76.277936,17.3943625 76.6912644,17.1889618 76.7664242,16.7781604 L76.7664242,16.7781604 L76.7476342,16.4436527 C76.6599491,16.0445964 76.1589453,15.4342767 75.2446206,14.612664 C75.2195638,14.5891539 75.1945175,14.565743 75.1694713,14.542233 C74.4054324,13.8262866 73.4472618,13.0751148 72.2949578,12.2887176 L72.2949578,12.2887176 L71.1676977,12.2887176 C70.8169914,12.1361501 70.4725507,11.9483572 70.1343759,11.7253388 L70.1343759,11.7253388 L68.1240947,10.2464656 C68.0865148,10.0352122 68.0552017,9.85915445 68.0301555,9.71829238 L68.0301555,9.71829238 L67.9362162,8.57392694 L67.9925756,7.71125589 C68.1804519,6.94836875 68.8881199,6.16785401 70.1155828,5.36971167 C70.8670859,5.00588082 71.7438435,4.60682453 72.7458565,4.17253288 L72.7458565,4.17253288 L80.8433417,0.897886572 Z M14.0907511,9.71829238 C14.4163975,10.1056333 14.7733634,10.6455418 15.1616487,11.3380177 C15.4998192,11.9600923 15.7691085,12.640843 15.9695185,13.3802598 C16.2325366,14.3309795 16.3765778,15.2699443 16.4016346,16.1971638 C16.4141789,16.3967019 16.4204246,16.5786223 16.4204246,16.742935 C16.4204246,17.1537463 16.3828372,17.5175871 16.3076986,17.8344871 C16.1824389,18.3743955 15.938199,18.826275 15.5749791,19.1901158 C15.1741686,19.5774469 14.7044767,19.8943468 14.1659046,20.1408157 C13.6398439,20.3755693 12.9760132,20.4929313 12.1744113,20.4929313 L12.1744113,20.4929313 L7.43991814,20.4929313 L7.43991814,17.3943426 L12.2307747,17.3943426 C13.5584299,17.3943526 14.3287241,17.2006871 14.5416583,16.8133561 L14.5416583,16.8133561 L14.5792276,16.6020927 L14.5228683,16.109135 C14.4477106,15.8391956 14.165895,15.2171309 13.6774228,14.2429408 C13.1638873,13.2100944 12.8820697,12.6701463 12.8319773,12.6232253 L12.8319773,12.6232253 L14.0907511,9.71829238 Z M1.74725353,0 C1.79734916,0.105656472 1.84745219,0.211293104 1.89755522,0.316899976 C2.26077944,1.15025783 2.6490573,2.58804292 3.06239091,4.63027509 C3.47571393,6.70775253 3.74500423,8.24531161 3.87026075,9.24294241 C4.15833255,11.519948 4.32742419,12.9049296 4.37752723,13.3978676 L4.37752723,13.3978676 L4.73450154,16.0210664 C4.74701407,16.1149778 4.76580403,16.2030166 4.79086084,16.285153 C4.96620557,17.0245996 5.18539495,17.3943129 5.448429,17.394303 L5.448429,17.394303 L7.40234669,17.394303 L7.40234669,20.492899 L7.40234669,20.492899 L5.110251,20.492899 C4.47146433,20.4811564 3.9641968,20.3227064 3.58844946,20.0175416 L3.58844946,20.0175416 L3.49451025,19.9295524 C3.13127755,19.5539765 2.89330032,19.1959884 2.78057856,18.8556081 C2.59269801,18.3274448 2.46745101,17.8403596 2.40482487,17.3943426 C2.22946955,16.1267527 2.07916892,14.7417809 1.95392087,13.2394176 C1.86624215,12.2652571 1.71594046,10.974177 1.50301687,9.36618681 C1.47796006,9.15493339 1.44664699,8.94367003 1.40907765,8.73238685 L1.40907765,8.73238685 L0.713933805,5.15843841 C0.701389522,5.1114877 0.695141728,5.07041946 0.695143846,5.03520394 C0.594940956,4.57748158 0.363226341,4.01410274 0,3.34506742 L0,3.34506742 L1.74725353,0 Z M100.814638,13.5563175 C100.250992,13.7676007 99.8376659,14.1138437 99.5746488,14.5950463 C99.5495602,14.6537719 99.5245775,14.7065654 99.499489,14.7535063 C99.3867492,15.1995231 99.3304005,15.604452 99.3304005,15.9682927 L99.3491375,16.4084273 C99.411806,17.0187668 99.6372114,17.4413033 100.025502,17.676037 C100.050591,17.6995472 100.081819,17.7171053 100.119399,17.7288107 C100.470088,17.8109472 100.864635,17.8520452 101.303018,17.8520452 C102.192286,17.8520452 102.893696,17.6760073 103.40724,17.3238819 C103.332175,16.842709 103.069147,16.0856745 102.618252,15.0527985 C101.929364,14.0551577 101.32816,13.5563175 100.814638,13.5563175 Z"/>
	</g>
</svg>

<svg xmlns="http://www.w3.org/2000/svg" width="106" height="30"><path fill="#000" fill-rule="nonzero" d="m89.072 26.408 2.556 1.62L89.974 30l-2.555-1.55 1.653-2.042zm-4.546 0 2.555 1.62L85.428 30l-2.555-1.55 1.653-2.042zm-21.756 0 2.555 1.62L63.67 30l-2.555-1.55 1.654-2.042zm-4.547 0 2.555 1.62L59.125 30l-2.555-1.55 1.653-2.042zm-18.149 0 2.555 1.62L40.976 30l-2.555-1.55 1.653-2.042zm-4.547 0 2.556 1.62L36.429 30l-2.555-1.55 1.653-2.042zm-21.605 0 2.555 1.62L14.823 30l-2.555-1.55 1.654-2.042zm-4.547 0 2.555 1.62L10.277 30l-2.555-1.55 1.653-2.042zm91.383-15.299c.501 0 .877.059 1.127.176.64.305 1.215.78 1.729 1.426.564.67 1.077 1.532 1.54 2.588.301.634.552 1.48.752 2.535l.038.282.056 1.162-.094 1.373-.056.51c-.15.916-.464 1.885-.94 2.906-.4.915-1.04 1.86-1.916 2.834-.45.564-1.096 1.086-1.935 1.567l-.601.3c-.501.187-1.109.281-1.823.281-.588 0-1.321-.111-2.198-.334-.463-.082-1.371-.388-2.724-.916l-.188-.07.413-.898 3.57-.018h.15c.138 0 .42-.064.846-.193.701-.235 1.459-.658 2.273-1.268.326-.247.87-.775 1.635-1.585.663-.786 1.177-1.496 1.54-2.13.213-.47.32-.827.32-1.074 0-.234-.063-.481-.188-.74-.601.376-1.54.558-2.818.547-.476 0-.87-.024-1.184-.07-.651-.036-1.265-.294-1.841-.775a1.656 1.656 0 0 1-.3-.282c-.339-.387-.577-.968-.715-1.743a2.554 2.554 0 0 1-.056-.493l-.038-.722c.025-.716.113-1.35.263-1.901.113-.54.445-1.133.996-1.778a2.97 2.97 0 0 1 .376-.388c.25-.281.626-.563 1.127-.845.338-.176.626-.264.864-.264zm-51.271 13.24 3.062 2.024-1.973 2.377-3.08-1.866 1.99-2.535zM89.24 9.719c.326.387.683.927 1.071 1.619.339.622.608 1.303.808 2.042.263.951.407 1.89.432 2.817.013.2.02.382.02.546 0 .41-.038.775-.114 1.091-.125.54-.37.992-.732 1.356-.401.387-.87.704-1.41.95-.525.236-1.19.353-1.99.353H82.59v-3.099h4.79c1.328 0 2.099-.193 2.311-.58l.038-.212-.056-.493c-.076-.27-.357-.892-.846-1.866-.513-1.033-.795-1.573-.845-1.62l1.258-2.905zM80.843.897v2.465L70.191 7.782l.45.37 4.134 3.133a25.631 25.631 0 0 1 2.8 2.43c.337.34 1.101 1.215 2.291 2.623l.282.317c.439.493.833.74 1.184.74h1.24v3.098H22.639c-.513 0-.983-.17-1.409-.51-.25-.188-.47-.488-.657-.899a4.237 4.237 0 0 1-.339-1.18l-.018-.298.037-.916c.025-.211.113-.428.263-.651.075-.094.226-.258.451-.493 0 .387.013.628.038.722.05.293.112.48.187.563.1.117.238.235.414.352.213.14.57.211 1.07.211h5.938c.714 0 1.196-.105 1.446-.317l.17-.264.056-.317c0-.152-.1-.492-.3-1.02a21.313 21.313 0 0 0-1.504-2.483c-1.127-1.432-2.286-2.535-3.476-3.31a95.615 95.615 0 0 1 1.146-3.063c.301.293.608.604.921.933 1.453 1.584 2.618 3.192 3.495 4.824.225.422.45.915.676 1.479l.845 2.306c.025.117.063.24.113.37.2.575.357.862.47.862h8.078v-.51c-.062-.634-.187-1.162-.375-1.585l-1.334-2.623c.075-.27.47-1.226 1.183-2.87a.653.653 0 0 1 .038-.088c.45.493.97 1.426 1.56 2.8l.319.862c.163.528.338 1.21.526 2.043l.263 1.338c.012.07.031.123.056.158.125.317.432.475.92.475h8.192v-.51c-.062-.634-.188-1.162-.376-1.585l-1.333-2.623c.075-.27.47-1.226 1.183-2.87a.653.653 0 0 1 .038-.088c.45.493.97 1.426 1.56 2.8l.319.862c.162.528.338 1.21.526 2.043l.263 1.338c.012.07.03.123.056.158.125.317.432.475.92.475h8.192v-.51c-.063-.634-.188-1.162-.376-1.585l-1.334-2.623c.075-.27.47-1.226 1.184-2.87a.654.654 0 0 1 .037-.088c.451.493.971 1.426 1.56 2.8l.32.862c.162.528.337 1.21.525 2.043l.263 1.338c.013.07.032.123.057.158.125.317.432.475.92.475h8.924c.752 0 1.165-.205 1.24-.616l-.018-.334c-.088-.4-.59-1.01-1.503-1.831l-.076-.07c-.764-.717-1.722-1.468-2.874-2.254h-1.127a6.816 6.816 0 0 1-1.034-.564l-2.01-1.479-.094-.528-.094-1.144.057-.863c.187-.763.895-1.543 2.123-2.341a69.912 69.912 0 0 1 2.63-1.197L80.843.898zm-66.752 8.82c.325.388.682.928 1.07 1.62.339.622.608 1.303.809 2.042.263.951.407 1.89.432 2.817.012.2.018.382.018.546 0 .41-.037.775-.112 1.091-.126.54-.37.992-.733 1.356-.4.387-.87.704-1.41.95-.525.236-1.189.353-1.99.353H7.44v-3.099h4.79c1.328 0 2.099-.193 2.312-.58l.037-.212-.056-.493c-.075-.27-.357-.892-.846-1.866-.513-1.033-.795-1.573-.845-1.62l1.259-2.905zM1.747 0l.15.317c.364.833.752 2.271 1.165 4.313.414 2.078.683 3.615.808 4.613.288 2.277.457 3.662.508 4.155l.357 2.623c.012.094.03.182.056.264.175.74.394 1.11.657 1.11h1.954v3.098H5.11c-.639-.012-1.146-.17-1.522-.475l-.093-.088c-.364-.376-.602-.734-.714-1.074a7.52 7.52 0 0 1-.376-1.462 77.365 77.365 0 0 1-.451-4.155 97.65 97.65 0 0 0-.451-3.873 11.062 11.062 0 0 0-.094-.634L.714 5.158a.486.486 0 0 1-.019-.123c-.1-.458-.332-1.02-.695-1.69L1.747 0zm99.068 13.556c-.564.212-.977.558-1.24 1.039-.025.059-.05.112-.076.159-.112.446-.169.85-.169 1.214l.02.44c.062.61.287 1.033.676 1.268a.238.238 0 0 0 .093.053c.351.082.746.123 1.184.123.89 0 1.59-.176 2.104-.528-.075-.481-.338-1.238-.789-2.271-.689-.998-1.29-1.497-1.803-1.497z"/></svg>
